icons/cpu-fill.svg

<svg xmlns="http://www.w3.org/2000/svg" width="24" height="24" fill="none"><g clip-path="url(#a)"><g><path fill="#121212" d="M14 20H10V22H8V20H5C4.73478 20 4.48043 19.8946 4.29289 19.7071C4.10536 19.5196 4 19.2652 4 19V16H2V14H4V10H2V8H4V5C4 4.73478 4.10536 4.48043 4.29289 4.29289C4.48043 4.10536 4.73478 4 5 4H8V2H10V4H14V2H16V4H19C19.2652 4 19.5196 4.10536 19.7071 4.29289C19.8946 4.48043 20 4.73478 20 5V8H22V10H20V14H22V16H20V19C20 19.2652 19.8946 19.5196 19.7071 19.7071C19.5196 19.8946 19.2652 20 19 20H16V22H14V20ZM7 7V11H11V7H7Z"/></g></g><defs><clipPath id="a"><rect width="24" height="24" fill="white"/></clipPath></defs></svg>

<svg width="24" height="24" fill="none" xmlns="http://www.w3.org/2000/svg"><g clip-path="url(#a)"><path d="M14 20h-4v2H8v-2H5a1 1 0 0 1-1-1v-3H2v-2h2v-4H2V8h2V5a1 1 0 0 1 1-1h3V2h2v2h4V2h2v2h3a1 1 0 0 1 1 1v3h2v2h-2v4h2v2h-2v3a1 1 0 0 1-1 1h-3v2h-2v-2ZM7 7v4h4V7H7Z" /></g><defs><clipPath id="a"><path fill="#fff" d="M0 0h24v24H0z"/></clipPath></defs></svg>
